22x22/apps/chrome-hejiihbkifllpgdfndalmghiodgkefan-Default.svg

<svg xmlns="http://www.w3.org/2000/svg" width="22" height="22" version="1.1">
 <circle style="opacity:0.2" cx="11" cy="11.5" r="10"/>
 <circle style="fill:#f4f4f7" cx="11" cy="11" r="10"/>
 <path style="opacity:0.2;fill:#f4f4f7" d="M 11,1 A 10,10 0 0 0 1,11 10,10 0 0 0 1.0107422,11.291016 10,10 0 0 1 11,1.5 10,10 0 0 1 20.989258,11.208985 10,10 0 0 0 21,11 10,10 0 0 0 11,1 Z"/>
 <path style="opacity:0.1" d="M 8.5816615,9.146178 C 11.273239,8.224945 11.731379,5.825193 11.387774,3.618786 c 0,-0.079612 0.06872,-0.1364791 0.137442,-0.1137325 C 14.102259,4.756109 17,7.485685 17,11.580049 17,14.719061 14.548946,17.49413 10.986901,17.49413 A 5.7267605,5.686616 0 0 1 7.7570075,6.951143 c 0.068722,-0.045495 0.1603495,0 0.1603495,0.079612 0.03436,0.4208095 0.148896,1.4785215 0.6184905,2.115423 z"/>
 <path style="fill:#ff5473" d="M 8.5816615,8.6461776 C 11.273239,7.724945 11.731379,5.325193 11.387774,3.1187859 c 0,-0.079613 0.06872,-0.1364788 0.137442,-0.1137325 C 14.102259,4.256109 17,6.985685 17,11.080049 17,14.219061 14.548946,16.99413 10.986901,16.99413 A 5.7267605,5.686616 0 0 1 7.7570075,6.451143 c 0.068722,-0.045495 0.1603495,0 0.1603495,0.079613 0.03436,0.4208095 0.148896,1.4785205 0.6184905,2.1154226 z"/>
</svg>

<svg xmlns="http://www.w3.org/2000/svg" width="22" height="22"><circle style="opacity:.2" cx="11" cy="11.5" r="10"/><circle style="fill:#f4f4f7" cx="11" cy="11" r="10"/><path style="opacity:.2;fill:#f4f4f7" d="M11 1A10 10 0 0 0 1 11a10 10 0 0 0 .01.291A10 10 0 0 1 11 1.5a10 10 0 0 1 9.99 9.709A10 10 0 0 0 21 11 10 10 0 0 0 11 1z"/><path style="opacity:.1" d="M8.582 9.146c2.691-.921 3.15-3.32 2.806-5.527 0-.08.068-.137.137-.114C14.102 4.756 17 7.485 17 11.58c0 3.14-2.451 5.914-6.013 5.914a5.727 5.687 0 0 1-3.23-10.543c.069-.045.16 0 .16.08.035.42.15 1.478.619 2.115z"/><path style="fill:#ff5473" d="M8.582 8.646c2.691-.921 3.15-3.32 2.806-5.527 0-.08.068-.137.137-.114C14.102 4.256 17 6.985 17 11.08c0 3.14-2.451 5.914-6.013 5.914a5.727 5.687 0 0 1-3.23-10.543c.069-.045.16 0 .16.08.035.42.15 1.478.619 2.115z"/></svg>
